glitch-avatars-svg/base_avatar/Avatar.fla/placeholder symbols 3/Avatar_sideArmUpperOffside3.svg

<?xml version="1.0" encoding="UTF-8" standalone="no"?>
<!-- Generator: flash2svg, http://dissentgraphics.com/tools/flash2svg -->

<svg
   xmlns:dc="http://purl.org/dc/elements/1.1/"
   xmlns:cc="http://creativecommons.org/ns#"
   xmlns:rdf="http://www.w3.org/1999/02/22-rdf-syntax-ns#"
   xmlns:svg="http://www.w3.org/2000/svg"
   xmlns="http://www.w3.org/2000/svg"
   xmlns:sodipodi="http://sodipodi.sourceforge.net/DTD/sodipodi-0.dtd"
   xmlns:inkscape="http://www.inkscape.org/namespaces/inkscape"
   id="Avatar"
   image-rendering="auto"
   version="1.1"
   x="0px"
   y="0px"
   width="8.0872164"
   height="18.374556"
   viewBox="0 0 8.0872164 18.374556"
   inkscape:version="0.48.4 r9939"
   sodipodi:docname="Avatar_sideArmUpperOffside3.svg">
  <metadata
     id="metadata3059">
    <rdf:RDF>
      <cc:Work
         rdf:about="">
        <dc:format>image/svg+xml</dc:format>
        <dc:type
           rdf:resource="http://purl.org/dc/dcmitype/StillImage" />
      </cc:Work>
    </rdf:RDF>
  </metadata>
  <sodipodi:namedview
     pagecolor="#ffffff"
     bordercolor="#666666"
     borderopacity="1"
     objecttolerance="10"
     gridtolerance="10"
     guidetolerance="10"
     inkscape:pageopacity="0"
     inkscape:pageshadow="2"
     inkscape:window-width="640"
     inkscape:window-height="480"
     id="namedview3057"
     showgrid="false"
     fit-margin-top="0"
     fit-margin-left="0"
     fit-margin-right="0"
     fit-margin-bottom="0"
     inkscape:zoom="1.8730159"
     inkscape:cx="37.05"
     inkscape:cy="-46.2"
     inkscape:window-x="0"
     inkscape:window-y="0"
     inkscape:window-maximized="0"
     inkscape:current-layer="Avatar" />
  <defs
     id="defs3041">
    <radialGradient
       gradientUnits="userSpaceOnUse"
       color-interpolation="sRGB"
       r="9.2343445"
       cx="4.4000001"
       cy="7.1999998"
       fx="4.4000001"
       fy="7.1999998"
       gradientTransform="matrix(-0.98391724,0.18231201,0.25871277,1.3981171,6.9,-3.649)"
       id="radialGradient">
      <stop
         stop-color="#FFF"
         stop-opacity="0.7058823529411765"
         offset="0"
         id="stop3044" />
      <stop
         stop-color="#FFF"
         stop-opacity="0.2980392156862745"
         offset="1"
         id="stop3046" />
    </radialGradient>
    <radialGradient
       gradientUnits="userSpaceOnUse"
       color-interpolation="sRGB"
       r="9.2399998"
       cx="11.303"
       cy="3.6059999"
       fx="11.303"
       fy="3.6059999"
       gradientTransform="matrix(-0.983,0.182,0.259,1.397,14.55,0.15)"
       id="radialGradient1">
      <stop
         stop-color="#FFF"
         stop-opacity="0.7058823529411765"
         offset="0"
         id="stop3049" />
      <stop
         stop-color="#FFF"
         stop-opacity="0.2980392156862745"
         offset="1"
         id="stop3051" />
    </radialGradient>
  </defs>
  <g
     id="sideArmUpperOffside4"
     overflow="visible"
     style="overflow:visible"
     transform="translate(3.05,1.5745553)">
    <g
       id="sideArmUpperOffside3_0">
      <g
         id="element">
        <path
           id="path"
           d="M 4.85,7 C 4.65,5.45 4.3,3.95 3.75,2.6 3.1,0.95 2.3,-0.2 1.45,-0.85 c -0.8,-0.6 -1.55,-0.8 -2.25,-0.7 -0.2,0 -0.25,0.05 -0.5,0.15 -0.9,0.7 -1.45,2.8 -1.6,6.35 -0.15,2.65 -0.15,4.6 -0.15,5.85 0.15,2.35 0.45,3.8 1,4.3 1,0.9 2.1,1.45 3.35,1.6 L 1.2,16.8 1.5,16.75 C 2.35,16.8 3,16.7 3.55,16.35 L 3.6,16.3 C 4.35,15.8 4.85,14.5 4.95,12.6 5.1,10.95 5.05,9.1 4.85,7 z M 1.1,-0.15 -0.1,0.1 l -0.35,-1.2 0.1,-0.1 c 0.3,0.1 0.6,0.25 0.8,0.5 l 0.65,0.55 z m -0.9,-1.1 c 0.35,0.1 0.75,0.3 1.1,0.6 l 0.45,0.5 -0.3,0 -0.8,-0.8 -0.45,-0.3 z m 2.35,2.8 -0.9,-1.4 0.4,-0.05 c 0.35,0.55 0.75,1.05 1,1.6 L 2.55,1.55 z M 3.2,2 3.9,3.75 3.3,3.65 2.65,1.9 3.2,2 z M 2.2,1.55 C 1.75,1.55 1.15,1.6 0.3,1.7 L 0,0.4 1.35,0.15 C 1.75,0.75 2,1.25 2.2,1.55 z M 2.4,1.9 3,3.6 C 2,3.5 1.2,3.4 0.55,3.55 L 0.35,2.05 C 0.95,1.9 1.7,1.85 2.4,1.9 z M 0.6,6.05 C -0.35,6.15 -1.25,6.35 -2.2,6.7 -2.25,6.1 -2.2,5.35 -2.05,4.55 -1.25,4.2 -0.4,4 0.3,3.85 l 0.3,2.2 z m 0,-2.2 C 1.45,3.75 2.25,3.8 3.1,3.9 3.25,4.25 3.35,5.05 3.6,6.2 2.6,6 1.7,6 0.85,6 L 0.85,5.75 0.6,3.85 z M 4,4.1 C 4.15,4.75 4.35,5.5 4.55,6.45 L 3.85,6.25 C 3.75,5.4 3.6,4.65 3.35,4 L 4,4.1 z M 0.25,3.55 c -0.7,0.1 -1.5,0.35 -2.3,0.65 L -1.8,2.6 0,2.1 0.25,3.55 z M 4,8.7 3.9,6.6 4.55,6.8 4.6,7 4.7,8.85 4,8.7 z M 3.8,8.6 C 2.95,8.45 2.1,8.4 1.15,8.4 L 0.9,6.25 C 1.8,6.2 2.75,6.35 3.6,6.55 L 3.8,8.6 z m 0.95,0.6 c 0.15,1 0.1,1.9 0,2.8 l -0.7,-0.35 c 0.05,-1 0.1,-1.9 0,-2.7 L 4.75,9.2 z M 0.85,8.4 C 0,8.45 -0.95,8.7 -2.05,9.1 L -2.2,6.95 C -1.25,6.6 -0.35,6.4 0.65,6.35 l 0.2,2.05 z m 3.9,3.9 c -0.05,0.75 -0.2,1.3 -0.3,1.65 l -0.7,-0.25 0.3,-1.75 c 0.3,0.1 0.55,0.2 0.7,0.35 z m -1,-0.45 c 0,0.65 -0.1,1.3 -0.25,1.8 C 2.95,13.5 2.25,13.4 1.45,13.35 l 0,-1.95 c 0.75,0 1.4,0.15 1.9,0.35 l 0.4,0.1 z M 3.4,11.45 C 2.65,11.25 2,11.1 1.45,11.05 L 1.2,8.7 C 2.1,8.6 3,8.7 3.8,8.9 3.85,9.75 3.85,10.65 3.7,11.6 L 3.4,11.45 z M 1.15,11.05 C 0.2,11.1 -0.85,11.25 -2,11.7 L -2.05,9.4 C -1,9 0,8.75 0.95,8.7 l 0.2,2.35 z m 3.3,3.15 C 4.2,15.1 3.85,15.75 3.5,16.1 l -0.1,0 C 3,16.35 2.6,16.5 2.15,16.5 l 0.3,-0.15 c 0.5,-0.4 0.9,-1.15 1.2,-2.35 l 0.8,0.2 z M 1.7,16.4 1.6,16.5 1.1,16.4 C 1.35,15.6 1.45,14.7 1.4,13.7 2.2,13.65 2.85,13.75 3.45,13.95 3.15,15 2.85,15.75 2.3,16.1 L 2.25,16.15 C 2.1,16.3 1.9,16.4 1.7,16.4 z M 0.85,16.35 c -0.6,-0.2 -1.15,-0.4 -1.6,-0.65 L -0.8,15.6 c -0.4,-0.15 -0.7,-0.55 -0.8,-1.15 0.75,-0.4 1.7,-0.7 2.8,-0.75 -0.05,1.05 -0.15,1.9 -0.35,2.65 z m 0.35,-3 c -1.05,0.15 -2.05,0.4 -2.9,0.8 -0.15,-0.6 -0.2,-1.35 -0.25,-2.15 1,-0.4 2.05,-0.6 3.1,-0.6 0,0.6 0.05,1.25 0.05,1.95 z M -0.6,-1.3 c -0.25,0.15 -0.45,0.3 -0.5,0.55 -0.1,0.1 -0.25,0.6 -0.45,1.3 l -0.55,0.2 c 0.25,-1 0.6,-1.65 0.95,-1.95 l 0.4,-0.15 0.15,0.05 z m -0.1,0.4 0.3,1.05 -0.85,0.3 0.35,-1.05 0.2,-0.3 z M -1.65,0.9 -2,2.35 -2.45,2.6 -2.2,1.1 -1.65,0.9 z M -2,2.75 -2.3,4.3 -2.6,4.4 -2.45,2.85 -2,2.75 z M -0.25,0.4 0,1.8 C -0.65,1.9 -1.25,2.05 -1.7,2.25 L -1.4,0.8 -0.25,0.4 z m -2.35,4.35 0.25,-0.1 -0.1,2.15 -0.25,0.1 0,-1.95 0.1,-0.2 z m 0.3,4.45 -0.5,0.2 0.05,-2.25 0.3,-0.1 0.15,2.15 z M -2.75,9.7 -2.3,9.45 -2.15,11.8 -2.7,12.05 -2.75,9.7 z m 0.55,2.4 c 0.1,1.05 0.1,1.75 0.25,2.2 l -0.3,0.05 c -0.15,-0.4 -0.35,-1.05 -0.4,-2 L -2.2,12.1 z m 0.1,2.55 0.2,-0.15 0.25,0.6 -0.45,-0.45 z"
           inkscape:connector-curvature="0"
           style="fill:url(#radialGradient1)" />
      </g>
    </g>
  </g>
</svg>

<?xml version="1.0" encoding="utf-8"?>
<!-- Generator: flash2svg, http://dissentgraphics.com/tools/flash2svg -->
<svg xmlns:xlink="http://www.w3.org/1999/xlink" id="Avatar" image-rendering="auto" baseProfile="basic" version="1.1" x="0px" y="0px" width="68" height="126" xmlns="http://www.w3.org/2000/svg" viewBox="0 0 68 126">
  <defs>
    <radialGradient gradientUnits="userSpaceOnUse" color-interpolation="sRGB" r="9.234344241600663" cx="4.4" cy="7.2" fx="4.4" fy="7.2" gradientTransform="matrix(-0.983917236328125 0.18231201171875 0.2587127685546875 1.3981170654296875 6.9 -3.649)" id="radialGradient">
      <stop stop-color="#FFF" stop-opacity="0.7058823529411765" offset="0"/>
      <stop stop-color="#FFF" stop-opacity="0.2980392156862745" offset="1"/>
    </radialGradient>
    <radialGradient gradientUnits="userSpaceOnUse" color-interpolation="sRGB" r="9.24" cx="11.303" cy="3.606" fx="11.303" fy="3.606" gradientTransform="matrix(-0.983 0.182 0.259 1.397 14.55 0.15)" id="radialGradient1">
      <stop stop-color="#FFF" stop-opacity="0.7058823529411765" offset="0"/>
      <stop stop-color="#FFF" stop-opacity="0.2980392156862745" offset="1"/>
    </radialGradient>
  </defs>
  <g id="sideArmUpperOffside4" overflow="visible">
    <g id="sideArmUpperOffside3_0">
      <g id="element">
        <path id="path" fill="url(#radialGradient1)" d="M4.85,7 C4.65,5.45 4.3,3.95 3.75,2.6 3.1,0.95 2.3,-0.2 1.45,-0.85 0.65,-1.45 -0.1,-1.65 -0.8,-1.55 -1,-1.55 -1.05,-1.5 -1.3,-1.4 -2.2,-0.7 -2.75,1.4 -2.9,4.95 -3.05,7.6 -3.05,9.55 -3.05,10.8 -2.9,13.15 -2.6,14.6 -2.05,15.1 -1.05,16 0.05,16.55 1.3,16.7 L1.2,16.8 1.5,16.75 C2.35,16.8 3,16.7 3.55,16.35 L3.6,16.3 C4.35,15.8 4.85,14.5 4.95,12.6 5.1,10.95 5.05,9.1 4.85,7z M1.1,-0.15 L-0.1,0.1 -0.45,-1.1 -0.35,-1.2 C-0.05,-1.1 0.25,-0.95 0.45,-0.7 L1.1,-0.15z M0.2,-1.25 C0.55,-1.15 0.95,-0.95 1.3,-0.65 L1.75,-0.15 1.45,-0.15 0.65,-0.95 0.2,-1.25z M2.55,1.55 L1.65,0.15 2.05,0.1 C2.4,0.65 2.8,1.15 3.05,1.7 L2.55,1.55z M3.2,2 L3.9,3.75 3.3,3.65 2.65,1.9 3.2,2z M2.2,1.55 C1.75,1.55 1.15,1.6 0.3,1.7 L0,0.4 1.35,0.15 C1.75,0.75 2,1.25 2.2,1.55z M2.4,1.9 L3,3.6 C2,3.5 1.2,3.4 0.55,3.55 L0.35,2.05 C0.95,1.9 1.7,1.85 2.4,1.9z M0.6,6.05 C-0.35,6.15 -1.25,6.35 -2.2,6.7 -2.25,6.1 -2.2,5.35 -2.05,4.55 -1.25,4.2 -0.4,4 0.3,3.85 L0.6,6.05z M0.6,3.85 C1.45,3.75 2.25,3.8 3.1,3.9 3.25,4.25 3.35,5.05 3.6,6.2 2.6,6 1.7,6 0.85,6 L0.85,5.75 0.6,3.85z M4,4.1 C4.15,4.75 4.35,5.5 4.55,6.45 L3.85,6.25 C3.75,5.4 3.6,4.65 3.35,4 L4,4.1z M0.25,3.55 C-0.45,3.65 -1.25,3.9 -2.05,4.2 L-1.8,2.6 0,2.1 0.25,3.55z M4,8.7 L3.9,6.6 4.55,6.8 4.6,7 4.7,8.85 4,8.7z M3.8,8.6 C2.95,8.45 2.1,8.4 1.15,8.4 L0.9,6.25 C1.8,6.2 2.75,6.35 3.6,6.55 L3.8,8.6z M4.75,9.2 C4.9,10.2 4.85,11.1 4.75,12 L4.05,11.65 C4.1,10.65 4.15,9.75 4.05,8.95 L4.75,9.2z M0.85,8.4 C0,8.45 -0.95,8.7 -2.05,9.1 L-2.2,6.95 C-1.25,6.6 -0.35,6.4 0.65,6.35 L0.85,8.4z M4.75,12.3 C4.7,13.05 4.55,13.6 4.45,13.95 L3.75,13.7 4.05,11.95 C4.35,12.05 4.6,12.15 4.75,12.3z M3.75,11.85 C3.75,12.5 3.65,13.15 3.5,13.65 2.95,13.5 2.25,13.4 1.45,13.35 L1.45,11.4 C2.2,11.4 2.85,11.55 3.35,11.75 L3.75,11.85z M3.4,11.45 C2.65,11.25 2,11.1 1.45,11.05 L1.2,8.7 C2.1,8.6 3,8.7 3.8,8.9 3.85,9.75 3.85,10.65 3.7,11.6 L3.4,11.45z M1.15,11.05 C0.2,11.1 -0.85,11.25 -2,11.7 L-2.05,9.4 C-1,9 0,8.75 0.95,8.7 L1.15,11.05z M4.45,14.2 C4.2,15.1 3.85,15.75 3.5,16.1 L3.4,16.1 C3,16.35 2.6,16.5 2.15,16.5 L2.45,16.35 C2.95,15.95 3.35,15.2 3.65,14 L4.45,14.2z M1.7,16.4 L1.6,16.5 1.1,16.4 C1.35,15.6 1.45,14.7 1.4,13.7 2.2,13.65 2.85,13.75 3.45,13.95 3.15,15 2.85,15.75 2.3,16.1 L2.25,16.15 C2.1,16.3 1.9,16.4 1.7,16.4z M0.85,16.35 C0.25,16.15 -0.3,15.95 -0.75,15.7 L-0.8,15.6 C-1.2,15.45 -1.5,15.05 -1.6,14.45 -0.85,14.05 0.1,13.75 1.2,13.7 1.15,14.75 1.05,15.6 0.85,16.35z M1.2,13.35 C0.15,13.5 -0.85,13.75 -1.7,14.15 -1.85,13.55 -1.9,12.8 -1.95,12 -0.95,11.6 0.1,11.4 1.15,11.4 1.15,12 1.2,12.65 1.2,13.35z M-0.6,-1.3 C-0.85,-1.15 -1.05,-1 -1.1,-0.75 -1.2,-0.65 -1.35,-0.15 -1.55,0.55 L-2.1,0.75 C-1.85,-0.25 -1.5,-0.9 -1.15,-1.2 L-0.75,-1.35 -0.6,-1.3z M-0.7,-0.9 L-0.4,0.15 -1.25,0.45 -0.9,-0.6 -0.7,-0.9z M-1.65,0.9 L-2,2.35 -2.45,2.6 -2.2,1.1 -1.65,0.9z M-2,2.75 L-2.3,4.3 -2.6,4.4 -2.45,2.85 -2,2.75z M-0.25,0.4 L0,1.8 C-0.65,1.9 -1.25,2.05 -1.7,2.25 L-1.4,0.8 -0.25,0.4z M-2.6,4.75 L-2.35,4.65 -2.45,6.8 -2.7,6.9 -2.7,4.95 -2.6,4.75z M-2.3,9.2 L-2.8,9.4 -2.75,7.15 -2.45,7.05 -2.3,9.2z M-2.75,9.7 L-2.3,9.45 -2.15,11.8 -2.7,12.05 -2.75,9.7z M-2.2,12.1 C-2.1,13.15 -2.1,13.85 -1.95,14.3 L-2.25,14.35 C-2.4,13.95 -2.6,13.3 -2.65,12.35 L-2.2,12.1z M-2.1,14.65 L-1.9,14.5 -1.65,15.1 -2.1,14.65z"/>
      </g>
    </g>
  </g>
</svg>
